src/assets/icons/map.svg

<svg width="24" height="24" viewBox="0 0 24 24" fill="none" xmlns="http://www.w3.org/2000/svg">
  <path d="M9.93471 6.08269L6.02369 7.38427C5.86026 7.43866 5.75 7.59156 5.75 7.7638V18.4434C5.75 18.7336 6.0492 18.9272 6.31387 18.8083L9.63346 17.3176C9.89802 17.1988 10.2011 17.2007 10.4642 17.3228L15.0539 19.4533C15.1763 19.5101 15.319 19.5014 15.4336 19.4301L19.5613 16.8617C19.6787 16.7887 19.75 16.6603 19.75 16.5221V6.15124C19.75 5.86399 19.4562 5.67038 19.1923 5.78366L15.5719 7.33721C15.3635 7.42665 15.1309 7.44258 14.9122 7.38241L10.1672 6.07656C10.0908 6.05554 10.0099 6.05767 9.93471 6.08269Z" stroke="#314158" stroke-width="1.5"/>
  <path d="M14.75 7V18.5" stroke="#314158" stroke-width="1.5"/>
  <path d="M9.75 5V17" stroke="#314158" stroke-width="1.5"/>
</svg>

<svg fill="none" viewBox="0 0 24 24"><path stroke="currentColor" stroke-width="1.5" d="M9.935 6.083 6.024 7.384a.4.4 0 0 0-.274.38v10.68c0 .29.3.483.564.364l3.32-1.49a1 1 0 0 1 .83.005l4.59 2.13a.4.4 0 0 0 .38-.023l4.127-2.568a.4.4 0 0 0 .189-.34V6.152a.4.4 0 0 0-.558-.368l-3.62 1.553a1 1 0 0 1-.66.045l-4.745-1.305a.4.4 0 0 0-.232.006ZM14.75 7v11.5M9.75 5v12"/></svg>
